svg/weather/snowstorm_2_fill.svg

<?xml version="1.0" encoding="UTF-8"?>
<svg width="24px" height="24px" viewBox="0 0 24 24" version="1.1" xmlns="http://www.w3.org/2000/svg" xmlns:xlink="http://www.w3.org/1999/xlink">
    <title>snowstorm_fill</title>
    <g id="Icon" stroke="none" stroke-width="1" fill="none" fill-rule="evenodd">
        <g id="Weather" transform="translate(-625.000000, -240.000000)" fill-rule="nonzero">
            <g id="snowstorm_fill" transform="translate(625.000000, 240.000000)">
                <path d="M24,0 L24,24 L0,24 L0,0 L24,0 Z M12.5935,23.2578 L12.5819,23.2595 L12.5109,23.295 L12.4919,23.2987 L12.4767,23.295 L12.4057,23.2595 C12.3958,23.2564 12.387,23.259 12.3821,23.2649 L12.378,23.2758 L12.3609,23.7031 L12.3659,23.7235 L12.3769,23.7357 L12.4805,23.8097 L12.4953,23.8136 L12.5071,23.8097 L12.6107,23.7357 L12.6233,23.7197 L12.6267,23.7031 L12.6096,23.2758 C12.6076,23.2657 12.601,23.2593 12.5935,23.2578 Z M12.8584,23.1453 L12.8445,23.1473 L12.6598,23.2397 L12.6499,23.2499 L12.6472,23.2611 L12.6651,23.6906 L12.6699,23.7034 L12.6784,23.7105 L12.8793,23.8032 C12.8914,23.8069 12.9022,23.803 12.9078,23.7952 L12.9118,23.7812 L12.8777,23.1665 C12.8753,23.1546 12.8674,23.147 12.8584,23.1453 Z M12.143,23.1473 C12.1332,23.1424 12.1222,23.1453 12.1156,23.1526 L12.1099,23.1665 L12.0758,23.7812 C12.0751,23.7927 12.0828,23.8019 12.0926,23.8046 L12.1083,23.8032 L12.3092,23.7105 L12.3186,23.7024 L12.3225,23.6906 L12.3404,23.2611 L12.3372,23.2485 L12.3278,23.2397 L12.143,23.1473 Z" id="MingCute"></path>
                <path d="M11.5,2 C14.2856,2 16.66,3.75154 17.5856,6.21198 C20.13,6.90766 22,9.23462 22,12 C22,14.4915 20.4814,16.6283 18.3193,17.5353 C19.0657,16.6833 19.2485,15.5096 18.8677,14.5 C19.2708,13.4311 19.0423,12.1783 18.182,11.318 C17.3217,10.4577 16.0689,10.2291 15,10.6323 C14.0043,10.2567 12.8489,10.4294 12,11.1502 C11.151,10.4294 9.9957,10.2567 9,10.6323 C7.93112,10.2291 6.67831,10.4577 5.81801,11.318 C4.95771,12.1783 4.72914,13.4311 5.1323,14.5 C4.93983,15.0103 4.89134,15.5625 4.98683,16.0939 C4.63082167,16.2127333 4.29268139,16.4001778 3.99302259,16.6561755 L3.79684,16.8394 C2.69866,15.9222 2,14.5427 2,13 C2,10.9486 3.23468,9.18749 5.00053,8.41614 C5.04543,4.86494 7.93814,2 11.5,2 Z M8.64644,12.7322 L8.99999,13.0858 L9.35354,12.7322 C9.74407,12.3417 10.3772,12.3417 10.7678,12.7322 C11.1583,13.1227 11.1583,13.7559 10.7678,14.1464 L10.4142,14.5 L10.7678,14.8535 C11.1583,15.2441 11.1583,15.8772 10.7678,16.2678 C10.3772,16.6583 9.74407,16.6583 9.35354,16.2678 L8.99999,15.9142 L8.64644,16.2678 C8.25591,16.6583 7.62275,16.6583 7.23222,16.2678 C6.8417,15.8772 6.8417,15.2441 7.23222,14.8535 L7.58578,14.5 L7.23222,14.1464 C6.8417,13.7559 6.8417,13.1227 7.23222,12.7322 C7.62275,12.3417 8.25591,12.3417 8.64644,12.7322 Z M14.6464,12.7322 L15,13.0858 L15.3535,12.7322 C15.7441,12.3417 16.3772,12.3417 16.7678,12.7322 C17.1583,13.1227 17.1583,13.7559 16.7678,14.1464 L16.4142,14.5 L16.7678,14.8535 C17.1583,15.2441 17.1583,15.8772 16.7678,16.2678 C16.3772,16.6583 15.7441,16.6583 15.3535,16.2678 L15,15.9142 L14.6464,16.2678 C14.2559,16.6583 13.6227,16.6583 13.2322,16.2678 C12.8417,15.8772 12.8417,15.2441 13.2322,14.8535 L13.5858,14.5 L13.2322,14.1464 C12.8417,13.7559 12.8417,13.1227 13.2322,12.7322 C13.6227,12.3417 14.2559,12.3417 14.6464,12.7322 Z M8.76776,18.2322 C9.15828,18.6227 9.15828,19.2559 8.76776,19.6464 L8.41421,20 L8.76776,20.3535 C9.15828,20.7441 9.15828,21.3772 8.76776,21.7678 C8.37723,22.1583 7.74407,22.1583 7.35354,21.7678 L6.99999,21.4142 L6.64644,21.7678 C6.25591,22.1583 5.62275,22.1583 5.23222,21.7678 C4.8417,21.3772 4.8417,20.7441 5.23222,20.3535 L5.58578,20 L5.23222,19.6464 C4.8417,19.2559 4.8417,18.6227 5.23222,18.2322 C5.62275,17.8417 6.25591,17.8417 6.64644,18.2322 L6.99999,18.5858 L7.35354,18.2322 C7.74407,17.8417 8.37723,17.8417 8.76776,18.2322 Z M14.7678,19.6464 C15.1583,19.2559 15.1583,18.6227 14.7678,18.2322 C14.3772,17.8417 13.7441,17.8417 13.3535,18.2322 L13,18.5858 L12.6464,18.2322 C12.2559,17.8417 11.6227,17.8417 11.2322,18.2322 C10.8417,18.6227 10.8417,19.2559 11.2322,19.6464 L11.5858,20 L11.2322,20.3535 C10.8417,20.7441 10.8417,21.3772 11.2322,21.7678 C11.6227,22.1583 12.2559,22.1583 12.6464,21.7678 L13,21.4142 L13.3535,21.7678 C13.7441,22.1583 14.3772,22.1583 14.7678,21.7678 C15.1583,21.3772 15.1583,20.7441 14.7678,20.3535 L14.4142,20 L14.7678,19.6464 Z" id="形状" fill="#09244B"></path>
            </g>
        </g>
    </g>
</svg>

<svg xmlns="http://www.w3.org/2000/svg" width="24" height="24"><g fill="none" fill-rule="nonzero"><path d="M24 0v24H0V0h24ZM12.594 23.258l-.012.002-.071.035-.02.004-.014-.004-.071-.036c-.01-.003-.019 0-.024.006l-.004.01-.017.428.005.02.01.013.104.074.015.004.012-.004.104-.074.012-.016.004-.017-.017-.427c-.002-.01-.009-.017-.016-.018Zm.264-.113-.014.002-.184.093-.01.01-.003.011.018.43.005.012.008.008.201.092c.012.004.023 0 .029-.008l.004-.014-.034-.614c-.003-.012-.01-.02-.02-.022Zm-.715.002a.023.023 0 0 0-.027.006l-.006.014-.034.614c0 .012.007.02.017.024l.015-.002.201-.093.01-.008.003-.011.018-.43-.003-.012-.01-.01-.184-.092Z"/><path fill="#09244B" d="M11.5 2a6.502 6.502 0 0 1 6.086 4.212 6.002 6.002 0 0 1 .733 11.323c.747-.852.93-2.025.549-3.035A3 3 0 0 0 15 10.632a3.002 3.002 0 0 0-3 .518 3.002 3.002 0 0 0-3-.518A3 3 0 0 0 5.132 14.5a3.012 3.012 0 0 0-.145 1.594 2.981 2.981 0 0 0-.994.562l-.196.183A5 5 0 0 1 5 8.416 6.5 6.5 0 0 1 11.5 2ZM8.646 12.732l.354.354.354-.354a1 1 0 0 1 1.414 1.414l-.354.354.354.354a1 1 0 0 1-1.414 1.414L9 15.914l-.354.354a1 1 0 0 1-1.414-1.415l.354-.353-.354-.354a1 1 0 1 1 1.414-1.414Zm6 0 .354.354.354-.354a1 1 0 0 1 1.414 1.414l-.354.354.354.354a1 1 0 0 1-1.415 1.414L15 15.914l-.354.354a1 1 0 0 1-1.414-1.415l.354-.353-.354-.354a1 1 0 0 1 1.414-1.414Zm-5.878 5.5a1 1 0 0 1 0 1.414L8.414 20l.354.354a1 1 0 0 1-1.414 1.414L7 21.414l-.354.354a1 1 0 0 1-1.414-1.415L5.586 20l-.354-.354a1 1 0 1 1 1.414-1.414l.354.354.354-.354a1 1 0 0 1 1.414 0Zm6 1.414a1 1 0 0 0-1.415-1.414l-.353.354-.354-.354a1 1 0 0 0-1.414 1.414l.354.354-.354.354a1 1 0 0 0 1.414 1.414l.354-.354.354.354a1 1 0 0 0 1.414-1.415L14.414 20l.354-.354Z"/></g></svg>
